X: 30980
T: P Stands For Paddy, I Suppose
R: strathspey
M: 4/4
K: Dminor
G4d2>d|c>AG>AF4|g2gagfde|f6df|
ggg2f3d|cAGAF2GA|BdcBG2F2|G8||

